assets/quality-hover.svg

<?xml version="1.0" encoding="utf-8"?>
<!-- Generator: Adobe Illustrator 22.0.0, SVG Export Plug-In . SVG Version: 6.00 Build 0)  -->
<svg version="1.1" id="Layer_1" xmlns="http://www.w3.org/2000/svg" xmlns:xlink="http://www.w3.org/1999/xlink" x="0px" y="0px"
	 width="18px" height="18px" viewBox="0 0 18 18" style="enable-background:new 0 0 18 18;" xml:space="preserve">
<style type="text/css">
	.st0{fill:none;}
	.st1{fill:#FFB600;}
</style>
<path class="st0" d="M0,0h18v18H0V0z"/>
<path class="st1" d="M5.2,13.5h1.5v-9H5.2V13.5z M8.2,16.5h1.5v-15H8.2V16.5z M2.2,10.5h1.5v-3H2.2V10.5z M11.2,13.5h1.5v-9h-1.5
	V13.5z M14.2,7.5v3h1.5v-3H14.2z"/>
</svg>

<svg xmlns="http://www.w3.org/2000/svg" viewBox="0 0 18 18" width="18" height="18">
	<style>
		tspan { white-space:pre }
		.shp0 { fill: none } 
		.shp1 { fill: #ea1e65 } 
	</style>
	<path id="Layer" class="shp0" d="M0 0L18 0L18 18L0 18L0 0Z" />
	<path id="Layer" class="shp1" d="M5.2 13.5L6.7 13.5L6.7 4.5L5.2 4.5L5.2 13.5ZM8.2 16.5L9.7 16.5L9.7 1.5L8.2 1.5L8.2 16.5ZM2.2 10.5L3.7 10.5L3.7 7.5L2.2 7.5L2.2 10.5ZM11.2 13.5L12.7 13.5L12.7 4.5L11.2 4.5L11.2 13.5ZM14.2 7.5L14.2 10.5L15.7 10.5L15.7 7.5L14.2 7.5Z" />
</svg>
